flaticon/arrows/curved-arrow.svg

<svg xmlns="http://www.w3.org/2000/svg" width="32" height="32" viewBox="0 0 24 24">
    <path d="M 23.882812 14.515625 C 23.726562 14.359375 23.472656 14.359375 23.316406 14.515625 L 20.398438 17.433594 L 20.398438 5.601562 C 20.398438 3.175781 18.425781 1.199219 16 1.199219 C 13.574219 1.199219 11.601562 3.175781 11.601562 5.601562 L 11.601562 18.398438 C 11.601562 20.386719 9.984375 22 8 22 C 6.015625 22 4.398438 20.386719 4.398438 18.398438 L 4.398438 6.566406 L 7.316406 9.484375 C 7.394531 9.5625 7.496094 9.601562 7.601562 9.601562 C 7.703125 9.601562 7.804688 9.5625 7.882812 9.484375 C 8.039062 9.328125 8.039062 9.074219 7.882812 8.917969 L 4.28125 5.316406 C 4.246094 5.28125 4.203125 5.25 4.152344 5.230469 C 4.054688 5.191406 3.945312 5.191406 3.847656 5.230469 C 3.796875 5.25 3.753906 5.28125 3.71875 5.316406 L 0.117188 8.917969 C -0.0390625 9.074219 -0.0390625 9.328125 0.117188 9.484375 C 0.195312 9.5625 0.296875 9.601562 0.398438 9.601562 C 0.503906 9.601562 0.605469 9.5625 0.683594 9.484375 L 3.601562 6.566406 L 3.601562 18.398438 C 3.601562 20.824219 5.574219 22.800781 8 22.800781 C 10.425781 22.800781 12.398438 20.824219 12.398438 18.398438 L 12.398438 5.601562 C 12.398438 3.613281 14.015625 2 16 2 C 17.984375 2 19.601562 3.613281 19.601562 5.601562 L 19.601562 17.433594 L 16.683594 14.515625 C 16.527344 14.359375 16.273438 14.359375 16.117188 14.515625 C 15.960938 14.671875 15.960938 14.925781 16.117188 15.082031 L 19.71875 18.683594 C 19.753906 18.71875 19.796875 18.75 19.847656 18.769531 C 19.894531 18.789062 19.949219 18.800781 20 18.800781 C 20.050781 18.800781 20.105469 18.789062 20.152344 18.769531 C 20.203125 18.75 20.246094 18.71875 20.28125 18.683594 L 23.882812 15.082031 C 24.039062 14.925781 24.039062 14.671875 23.882812 14.515625 Z M 23.882812 14.515625"/>
</svg>

<svg xmlns="http://www.w3.org/2000/svg" width="32" height="32" viewBox="0 0 24 24">
    <path d="M23.883 14.516a.4.4 0 0 0-.567 0l-2.918 2.918V5.602A4.406 4.406 0 0 0 16 1.199a4.406 4.406 0 0 0-4.398 4.403v12.796A3.605 3.605 0 0 1 8 22a3.605 3.605 0 0 1-3.602-3.602V6.566l2.918 2.918a.399.399 0 0 0 .567 0 .4.4 0 0 0 0-.566L4.28 5.316a.373.373 0 0 0-.129-.086.41.41 0 0 0-.304 0 .373.373 0 0 0-.13.086l-3.6 3.602a.4.4 0 0 0 .566.566l2.918-2.918v11.832A4.406 4.406 0 0 0 8 22.801a4.406 4.406 0 0 0 4.398-4.403V5.602A3.605 3.605 0 0 1 16 2a3.605 3.605 0 0 1 3.602 3.602v11.832l-2.918-2.918a.4.4 0 0 0-.567.566l3.602 3.602A.408.408 0 0 0 20 18.8a.408.408 0 0 0 .281-.117l3.602-3.602a.4.4 0 0 0 0-.566zm0 0"/>
</svg>
